X:1
T:Canon in D
T:Johannes Pachelbel
%%score 1 2 3
L:1/8
Q:1/4=96
M:4/4
K:D
V:1 treble nm="Violin 1" snm="Vln. 1"
V:2 treble nm="Violin 2" snm="Vln. 2"
V:3 bass nm="Violoncello" snm="Vlc."
V:1
"^Andante" z8 | z8 | z8 | z8 | f4 e4 | d4 c4 | B4 A4 | B4 c4 | d4 c4 | B4 A4 | G4 F4 | G4 E4 | %12
 D2 F2 A2 G2 | F2 D2 F2 E2 | D2 B,2 D2 A2 | G2 B2 A2 G2 | F2 D2 E2 c2 | d2 f2 a2 A2 | B2 G2 A2 F2 | %19
 D2 d2 d3 c | af/g/ af/g/ a/A/B/c/ d/e/f/g/ | fd/e/ fF/G/ A/B/A/G/ A/F/G/A/ | %22
 GB/A/ GF/E/ F/E/D/E/ F/G/A/B/ | GB/A/ Bc/d/ A/B/c/d/ e/f/g/a/ | fd/e/ fe/d/ e/c/d/e/ f/e/d/c/ | %25
 dB/c/ dD/E/ F/G/F/E/ F/d/c/d/ | Bd/c/ BA/G/ A/G/F/G/ A/B/c/d/ | Bd/c/ dc/B/ c/d/e/d/ c/d/B/c/ | %28
 F3 f fgfe | d3 d dedc | B4 d4 | d=cBc A3 A | A3 a abag | f3 f fgfe | d=cBc A3 A | G2 d2 ^c3 c | %36
 F3 f fgfe | d3 d dedc | B4 d4 | d=cBc A3 A | F2 f4 e2 | d2 d'4 =c'2 | b4 (d'2 a2) | b4 a4 | %44
 a4 (A3 G) | F4 (f3 e) | d6 d2 | d4 c4 | d2 D2 C2 c2 | B2 B,2 A,2 A2 | G2 g2 f2 F2 | E2 B2 E2 e2 | %52
 f2 F2 E2 e2 | d2 D2 C2 c2 | B2 b2 a2 A2 | G3 e A2 A2 | d8 |] %57
V:2
 z8 | z8 | z8 | z8 | z8 | z8 | z8 | z8 | f4 e4 | d4 c4 | B4 A4 | B4 c4 | d4 c4 | B4 A4 | G4 F4 | %15
 G4 E4 | D2 F2 A2 G2 | F2 D2 F2 E2 | D2 B,2 D2 A2 | G2 B2 A2 G2 | d2 d2 c4 | z2 B2 d4 | d6 d2 | %23
 d2 g2 e2 a2 | af/g/ af/g/ a/A/B/c/ d/e/f/g/ | fd/e/ fF/G/ A/B/A/G/ A/F/G/A/ | %26
 GB/A/ GF/E/ F/E/D/E/ F/G/A/B/ | GB/A/ Bc/d/ A/B/c/d/ e/f/g/a/ | d2 d2 c4 | B4 A4 | D3 E F4 | %31
 B4 E3 E | F3 f fgfe | d3 d dedc | B4 d4 | d=cBc A3 A | A3 a abag | f3 f fgfe | d=cBc A3 A | %39
 G2 d2 ^c3 c | A3 a abag | f3 f fgfe | d=cBc A3 A | G2 d2 ^c3 c | F2 f4 e2 | d2 d'4 =c'2 | %46
 b4 (d'2 a2) | b4 a4 | a4 (A3 G) | F4 (f3 e) | d6 d2 | d4 c4 | d2 D2 C2 c2 | B2 B,2 A,2 A2 | %54
 G2 g2 f2 F2 | E2 B2 E2 e2 | f8 |] %57
V:3
 D,4 A,,4 | B,,4 F,,4 | G,,4 D,,4 | G,,4 A,,4 | D,4 A,,4 | B,,4 F,,4 | G,,4 D,,4 | G,,4 A,,4 | %8
 D,4 A,,4 | B,,4 F,,4 | G,,4 D,,4 | G,,4 A,,4 | D,4 A,,4 | B,,4 F,,4 | G,,4 D,,4 | G,,4 A,,4 | %16
 D,4 A,,4 | B,,4 F,,4 | G,,4 D,,4 | G,,4 A,,4 | D,4 A,,4 | B,,4 F,,4 | G,,4 D,,4 | G,,4 A,,4 | %24
 D,4 A,,4 | B,,4 F,,4 | G,,4 D,,4 | G,,4 A,,4 | D,4 A,,4 | B,,4 F,,4 | G,,4 D,,4 | G,,4 A,,4 | %32
 D,4 A,,4 | B,,4 F,,4 | G,,4 D,,4 | G,,4 A,,4 | D,4 A,,4 | B,,4 F,,4 | G,,4 D,,4 | G,,4 A,,4 | %40
 D,4 A,,4 | B,,4 F,,4 | G,,4 D,,4 | G,,4 A,,4 | D,4 A,,4 | B,,4 F,,4 | G,,4 D,,4 | G,,4 A,,4 | %48
 D,4 A,,4 | B,,4 F,,4 | G,,4 D,,4 | G,,4 A,,4 | D,4 A,,4 | B,,4 F,,4 | G,,4 D,,4 | G,,4 A,,4 | %56
 D,8 |] %57

